.local/share/icons/Gruvbox-Plus-Dark/apps/16/JavaFXSceneBuilder2.0.svg

<svg width="16" height="16" version="1.1" xmlns="http://www.w3.org/2000/svg">
  <defs>
    <style id="current-color-scheme" type="text/css">.ColorScheme-Text { color:#ebdbb2; } .ColorScheme-Highlight { color:#458588; }</style>
  </defs>
  <path class="ColorScheme-Text" d="m11.07 14.14c0.566-0.438 4.195-3.511 4.56-3.861 0.479-0.46 0.483-0.581 0.06-1.812-0.926-2.695-2.555-6.043-3.288-6.624-0.305-0.242-0.868-0.238-1.264 7e-3 -0.552 0.344-0.527 0.806 0.101 1.903 0.226 0.395 0.412 0.878 0.412 0.911s-0.079 0.06-0.175 0.06c-0.123 0-0.404-0.348-0.95-1.177-0.831-1.263-1.071-1.463-1.617-1.353-0.411 0.083-0.88 0.401-1.035 0.702-0.178 0.348-0.105 0.524 0.727 1.733 0.512 0.743 0.651 1.009 0.572 1.089-0.058 0.059-0.134 0.106-0.17 0.106s-0.501-0.598-1.034-1.329c-0.341-0.467-0.607-0.81-0.805-1.038-0.341-0.465-0.665-0.321-1.083-0.167-0.3 0.148-0.603 0.36-0.752 0.557-0.351 0.463-0.299 0.756 0.277 1.565 0.277 0.39 0.689 0.936 0.914 1.215 0.395 0.488 0.491 0.832 0.253 0.911-0.139 0.045-0.067 0.125-2.718-2.991-1.641-1.93-2.412-2.769-2.605-2.837-0.363-0.128-0.759 0.039-1.146 0.485-0.574 0.658-0.641 0.541 2.585 4.472 1.583 1.929 2.919 3.56 2.968 3.625 0.183 0.238-0.311-0.045-1.176-0.334-0.729-0.244-0.993-0.29-1.47-0.26-0.79 0.066-1.15 0.501-1.167 1.102-0.012 0.419 0.39 0.823 0.882 1.074 0.281 0.144 3.663 1.413 6.224 2.185 1.119 0.337 1.565 0.356 1.92 0.081z" fill="currentColor"/>
</svg>

<svg xmlns="http://www.w3.org/2000/svg" style="isolation:isolate" width="16" height="16" viewBox="0 0 16 16">
 <defs>
  <style id="current-color-scheme" type="text/css">
   .ColorScheme-Text { color:#ebdbb2; } .ColorScheme-Highlight { color:#458588; }
  </style>
  <linearGradient id="arrongin" x1="0%" x2="0%" y1="0%" y2="100%">
   <stop offset="0%" style="stop-color:#d79921; stop-opacity:1"/>
   <stop offset="100%" style="stop-color:#b57614; stop-opacity:1"/>
  </linearGradient>
  <linearGradient id="aurora" x1="0%" x2="0%" y1="0%" y2="100%">
   <stop offset="0%" style="stop-color:#83a598; stop-opacity:1"/>
   <stop offset="100%" style="stop-color:#b16286; stop-opacity:1"/>
  </linearGradient>
  <linearGradient id="fitdance" x1="0%" x2="0%" y1="0%" y2="100%">
   <stop offset="0%" style="stop-color:#8ec07c; stop-opacity:1"/>
   <stop offset="100%" style="stop-color:#458588; stop-opacity:1"/>
  </linearGradient>
  <linearGradient id="oomox" x1="0%" x2="0%" y1="0%" y2="100%">
   <stop offset="0%" style="stop-color:#458588; stop-opacity:1"/>
   <stop offset="100%" style="stop-color:#928374; stop-opacity:1"/>
  </linearGradient>
  <linearGradient id="rainblue" x1="0%" x2="0%" y1="0%" y2="100%">
   <stop offset="0%" style="stop-color:#b8bb26; stop-opacity:1"/>
   <stop offset="100%" style="stop-color:#076678; stop-opacity:1"/>
  </linearGradient>
  <linearGradient id="sunrise" x1="0%" x2="0%" y1="0%" y2="100%">
   <stop offset="0%" style="stop-color: #fe8019; stop-opacity:1"/>
   <stop offset="100%" style="stop-color: #fabd2f; stop-opacity:1"/>
  </linearGradient>
  <linearGradient id="telinkrin" x1="0%" x2="0%" y1="0%" y2="100%">
   <stop offset="0%" style="stop-color: #83a598; stop-opacity:1"/>
   <stop offset="100%" style="stop-color: #83a598; stop-opacity:1"/>
  </linearGradient>
  <linearGradient id="60spsycho" x1="0%" x2="0%" y1="0%" y2="100%">
   <stop offset="0%" style="stop-color: #fb4934; stop-opacity:1"/>
   <stop offset="25%" style="stop-color: #fabd2f; stop-opacity:1"/>
   <stop offset="50%" style="stop-color: #fe8019; stop-opacity:1"/>
   <stop offset="100%" style="stop-color: #689d6a; stop-opacity:1"/>
  </linearGradient>
  <linearGradient id="90ssummer" x1="0%" x2="0%" y1="0%" y2="100%">
   <stop offset="0%" style="stop-color: #b16286; stop-opacity:1"/>
   <stop offset="20%" style="stop-color: #8ec07c; stop-opacity:1"/>
   <stop offset="50%" style="stop-color: #fabd2f; stop-opacity:1"/>
   <stop offset="100%" style="stop-color: #458588; stop-opacity:1"/>
  </linearGradient>
  <linearGradient id="cyberneon" x1="0%" x2="0%" y1="0%" y2="100%">
    <stop offset="0" style="stop-color:#83a598; stop-opacity:1"/>
    <stop offset="1" style="stop-color:#b16286; stop-opacity:1"/>
  </linearGradient>
 </defs>
 <path style="fill:currentColor" class="ColorScheme-Text" d="M 11.071 14.143 C 11.637 13.705 15.266 10.632 15.631 10.282 C 16.11 9.822 16.114 9.701 15.691 8.47 C 14.765 5.775 13.136 2.427 12.403 1.846 C 12.098 1.604 11.535 1.608 11.139 1.853 C 10.587 2.197 10.612 2.659 11.24 3.756 C 11.466 4.151 11.652 4.634 11.652 4.667 C 11.652 4.7 11.573 4.727 11.477 4.727 C 11.354 4.727 11.073 4.379 10.527 3.55 C 9.696 2.287 9.456 2.087 8.91 2.197 C 8.499 2.28 8.03 2.598 7.875 2.899 C 7.697 3.247 7.77 3.423 8.602 4.632 C 9.114 5.375 9.253 5.641 9.174 5.721 C 9.116 5.78 9.04 5.827 9.004 5.827 C 8.968 5.827 8.503 5.229 7.97 4.498 C 7.629 4.031 7.363 3.688 7.165 3.46 C 6.824 2.995 6.5 3.139 6.082 3.293 C 5.782 3.441 5.479 3.653 5.33 3.85 C 4.979 4.313 5.031 4.606 5.607 5.415 C 5.884 5.805 6.296 6.351 6.521 6.63 C 6.916 7.118 7.012 7.462 6.774 7.541 C 6.635 7.586 6.707 7.666 4.056 4.55 C 2.415 2.62 1.644 1.781 1.451 1.713 C 1.088 1.585 0.692 1.752 0.305 2.198 C -0.269 2.856 -0.336 2.739 2.89 6.67 C 4.473 8.599 5.809 10.23 5.858 10.295 C 6.041 10.533 5.547 10.25 4.682 9.961 C 3.953 9.717 3.689 9.671 3.212 9.701 C 2.422 9.767 2.062 10.202 2.045 10.803 C 2.033 11.222 2.435 11.626 2.927 11.877 C 3.208 12.021 6.59 13.29 9.151 14.062 C 10.27 14.399 10.716 14.418 11.071 14.143 L 11.071 14.143 Z"/>
</svg>
